Origami/24x24/apps/peruse.svg

<svg width="24" height="24" version="1" xmlns="http://www.w3.org/2000/svg">
 <path d="m13 3-2.5 8.5 11.5 3.5v-11c0-0.554-0.446-1-1-1z" style="fill-rule:evenodd;fill:#bbc91b"/>
 <path d="m10.5 11.5-3 9.5h13.5c0.554 0 1-0.446 1-1v-2-3z" style="fill-rule:evenodd;fill:#3e7952"/>
 <path d="m3 3c-0.554 0-1 0.446-1 1v16c0 0.554 0.446 1 1 1h4.9785155l5.0214845-18z" style="fill-rule:evenodd;fill:#3a76a2"/>
 <path d="m2 20v0.5c0 0.554 0.446 1 1 1h18c0.554 0 1-0.446 1-1v-0.5c0 0.554-0.446 1-1 1h-18c-0.554 0-1-0.446-1-1z" style="opacity:.2"/>
 <path d="M 11.811525,5.22461 C 7.81435,9.980985 2,9.5 2,9.5 l 0,2 c 0,0 1.927325,2.71837 7.17285,2.367525 z" style="fill:#9f3f32"/>
 <path d="m8.98779 8.785545c-0.380625 2e-3 -0.94684 0.640115-0.520865 0.9507 0.466725 0.3403 0.34166 0.70847 0.107995 0.80448-0.233665 0.09602-0.589035 0.01015-0.619445-0.56324-0.02895-0.54543-0.61734-0.872285-1.171845-0.056685-0.03425 0.08637-0.059845 0.173665-0.07199 0.260985-0.10956 0.78777 0.660545 1.55882 1.448315 1.66838 0.787775 0.109565 1.71767-0.57759 1.82723-1.365365 0.095235-0.684755-0.36115-1.440895-0.999385-1.69925zm-2.02398 0.80818c-0.02075 0.0292-0.03445 0.0601-0.053105 0.08998l0.053105-0.08998z" style="fill:#4d2f2b"/>
 <path d="M 11.811524,5.2246095 C 9.237996,7.9261025 6.425913,8.8596215 4.2568359,9.368164 4.4987575,9.6535735 4.9101198,10 5.5,10 6.5,10 7,9.5 7,9.5 c 0,0 1.306755,0.31759 3,-1 0.583165,-0.4537885 0.992123,-1.005839 1.290039,-1.5371095 z" style="fill:#dee3e3"/>
 <path d="m9.980469 11.326172c-0.3693715 0.14814-0.8196935 0.34344-1.480469 0.673828-1.1156635 0.557832-2.0390185 1.097635-2.669922 1.619476 1.0306825 0.397824 2.1153165 0.490736 3.3427735 0.248047z" style="fill:#e05e4c"/>
 <path d="m16.810547 13.202149c-0.2221 0.308647-0.45706 0.716821-0.695313 1.231445-0.676919 1.462155-1.083191 3.032665-1.597656 2.978515-0.51446-0.05417-0.689534-0.269363-0.974609-0.595703-0.285075-0.326335-0.641164-0.970616-0.993164-1.160156s-0.432531-0.135473-0.62207-0.108398c-0.18954 0.0271-0.285043-0.03418-0.379883 0.216797-0.09483 0.250959 0.397818 0.808244 0.533203 1.268554 0.10596 0.360267 0.358215 0.951032 0.451172 1.451172l0.807617 2.515625h5.21875c0.266523-0.758367 0.887883-1.762915 1.672851-2.472656 0.144987-0.131092 1.110865-0.894675 1.185547-1.049805 0.106071-0.220333-0.0049-0.593839-0.292969-0.55957-0.09604 0.01142-0.221334 0.06559-0.383789 0.180664-0.293987 0.20824-1.158921 0.639034-1.53418 0.901367 0.392279-0.575809 1.169439-1.477449 1.376954-1.779297 0.217391-0.316201 0.618543-0.961619 0.68457-1.362304l-0.654297-0.242188c-0.222873 0.146945-0.484053 0.418923-0.81543 0.819336-0.649845 0.785225-1.434757 1.949574-1.651367 1.787109-0.21662-0.16246 0.676858-1.380785 1.083008-2.166015 0.14428-0.278943 0.28416-0.549547 0.400391-0.806641l-1.069336-0.396484c-0.222469 0.303082-0.414235 0.634129-0.522461 0.850586-0.27077 0.54154-0.97506 2.112474-1.21875 2.031249-0.243695-0.08123 0.162209-1.435204 0.568359-2.193359 0.1675-0.312669 0.331777-0.646076 0.453125-0.957031l-1.030273-0.382812z" style="fill:#ffc169"/>
 <path d="M 20.69686,4 C 19.39372,4 17,4 14.91868,4.93438 14.032575,5.332185 13.18116,6.47212 13.61554,6.9065 14.04992,7.340885 14.926335,6.25984 16.221815,5.80314 18.5,5 21.04587,4.599245 22,4.48613 L 22,4.198525 C 21.72629,4.09655 21.310745,4 20.69686,4 Z" style="fill:#6c5548"/>
 <path d="m17.722656 6.5000009c-1.54064 0-3.222656 2.1258025-3.222656 3.6738731 0 0.870842 1.977212 1.115586 3.466797 1.306069 1.52832 0.195432 3.033203-1.064073 3.033203-2.6121381 0-0.113235-0.01147-0.2213595-0.0293-0.326763v-1e-3c-8.5e-4 -0.00502-0.0021-0.00973-0.0029-0.01472-3.5e-5 -1.955e-4 -9.5e-4 -8e-4 -1e-3 -1e-3 -0.217164-1.216231-1.571203-1.896503-2.892578-2.000809-0.0013-1.045e-4 -0.0026-8.5e-4 -0.0039-9.5e-4 -0.116161-9e-3 -0.232788-0.022525-0.347621-0.022525z" style="opacity:.2"/>
 <path d="m17.722656 6c-1.54064 0-3.222656 2.1258025-3.222656 3.6738735 0 0.8708425 1.977212 1.1155865 3.466797 1.3060695 1.52832 0.195432 3.033203-1.064073 3.033203-2.612139 0-0.113235-0.01147-0.2213595-0.0293-0.326763v-1e-3c-8.5e-4 -0.00502-0.0021-0.00973-0.0029-0.01472-3.5e-5 -1.955e-4 -9.5e-4 -8e-4 -1e-3 -1e-3 -0.217164-1.216231-1.571203-1.896503-2.892578-2.000809-0.0013-1.045e-4 -0.0026-8.5e-4 -0.0039-9.5e-4 -0.116161-9e-3 -0.232788-0.022525-0.347621-0.022525z" style="fill:#ffffff"/>
 <path d="M 18.433594,6.071289 A 1.5166552,1.5239656 0 0 0 17.5,7.475586 1.5166552,1.5239656 0 0 0 19.016601,9 1.5166552,1.5239656 0 0 0 20.533203,7.475586 1.5166552,1.5239656 0 0 0 20.476562,7.069336 C 19.99207,6.533572 19.230376,6.197353 18.433594,6.071289 Z" style="fill:#583268"/>
 <path d="M 4.4501953,3 C 4.5470178,4.0000569 4.8622131,5.114379 5.176758,5.6591875 5.798073,6.7353425 6.923845,6.6711275 8,6.0498125 9.07606,5.4284925 9.89432,4.43553 9.273,3.359375 9.2101515,3.250518 9.1185965,3.1259468 9.023,3 Z" style="fill:#54d883"/>
 <path d="m12.161133 3.5-4.8232425 18h0.1621095 0.4785155 0.3945315l4.823242-18h-0.196289-0.838867z" style="opacity:.2"/>
 <path d="M 10.5,11.5 10.241211,12.465821 22,15.616211 22,15.5 22,14.581055 10.5,11.5 Z" style="opacity:.2"/>
 <path d="m12.161133 3-4.8232425 18h0.1621095 0.4785155 0.3945315l4.823242-18h-0.196289-0.838867z" style="fill:#ffffff"/>
 <path d="M 10.5,11 10.241211,11.965821 22,15.116211 22,15 22,14.081055 10.5,11 Z" style="fill:#ffffff"/>
 <path d="m3 3c-0.554 0-1 0.446-1 1v0.5c0-0.554 0.446-1 1-1h18c0.554 0 1 0.446 1 1v-0.5c0-0.554-0.446-1-1-1z" style="fill:#ffffff;opacity:.2"/>
</svg>

<svg xmlns="http://www.w3.org/2000/svg" width="24" height="24" version="1">
 <path style="fill:#bbc91b;fill-rule:evenodd" d="M 13,3 10.5,11.5 22,15 22,4 C 22,3.446 21.554,3 21,3 Z"/>
 <path style="fill:#3e7952;fill-rule:evenodd" d="M 10.5,11.5 7.5,21 21,21 c 0.554,0 1,-0.446 1,-1 l 0,-2 0,-3 z"/>
 <path style="fill:#3a76a2;fill-rule:evenodd" d="M 3,3 C 2.446,3 2,3.446 2,4 l 0,16 c 0,0.554 0.446,1 1,1 L 7.9785155,21 13,3 Z"/>
 <path style="opacity:0.2" d="m 2,20 0,0.5 c 0,0.554 0.446,1 1,1 l 18,0 c 0.554,0 1,-0.446 1,-1 L 22,20 c 0,0.554 -0.446,1 -1,1 L 3,21 C 2.446,21 2,20.554 2,20 Z"/>
 <path style="fill:#9f3f32" d="M 11.811525,5.22461 C 7.81435,9.980985 2,9.5 2,9.5 l 0,2 c 0,0 1.927325,2.71837 7.17285,2.367525 z"/>
 <path style="fill:#4d2f2b" d="m 8.98779,8.785545 c -0.380625,0.002 -0.94684,0.640115 -0.520865,0.9507 0.466725,0.3403 0.34166,0.70847 0.107995,0.80448 -0.233665,0.09602 -0.589035,0.01015 -0.619445,-0.56324 C 7.926525,9.432055 7.338135,9.1052 6.78363,9.9208 c -0.03425,0.08637 -0.059845,0.173665 -0.07199,0.260985 -0.10956,0.78777 0.660545,1.55882 1.448315,1.66838 C 8.94773,11.95973 9.877625,11.272575 9.987185,10.4848 10.08242,9.800045 9.626035,9.043905 8.9878,8.78555 Z m -2.02398,0.80818 c -0.02075,0.0292 -0.03445,0.0601 -0.053105,0.08998 L 6.96381,9.593725 Z"/>
 <path style="fill:#dee3e3" d="M 11.811524,5.2246095 C 9.237996,7.9261025 6.425913,8.8596215 4.2568359,9.368164 4.4987575,9.6535735 4.9101198,10 5.5,10 6.5,10 7,9.5 7,9.5 c 0,0 1.306755,0.31759 3,-1 0.583165,-0.4537885 0.992123,-1.005839 1.290039,-1.5371095 z"/>
 <path style="fill:#e05e4c" d="M 9.980469,11.326172 C 9.6110975,11.474312 9.1607755,11.669612 8.5,12 7.3843365,12.557832 6.4609815,13.097635 5.830078,13.619476 6.8607605,14.0173 7.9453945,14.110212 9.1728515,13.867523 Z"/>
 <path style="fill:#ffc169" d="m 16.810547,13.202149 c -0.2221,0.308647 -0.45706,0.716821 -0.695313,1.231445 -0.676919,1.462155 -1.083191,3.032665 -1.597656,2.978515 -0.51446,-0.05417 -0.689534,-0.269363 -0.974609,-0.595703 -0.285075,-0.326335 -0.641164,-0.970616 -0.993164,-1.160156 -0.352,-0.18954 -0.432531,-0.135473 -0.62207,-0.108398 -0.18954,0.0271 -0.285043,-0.03418 -0.379883,0.216797 -0.09483,0.250959 0.397818,0.808244 0.533203,1.268554 0.10596,0.360267 0.358215,0.951032 0.451172,1.451172 L 13.339844,21 l 5.21875,0 c 0.266523,-0.758367 0.887883,-1.762915 1.672851,-2.472656 0.144987,-0.131092 1.110865,-0.894675 1.185547,-1.049805 0.106071,-0.220333 -0.0049,-0.593839 -0.292969,-0.55957 -0.09604,0.01142 -0.221334,0.06559 -0.383789,0.180664 -0.293987,0.20824 -1.158921,0.639034 -1.53418,0.901367 0.392279,-0.575809 1.169439,-1.477449 1.376954,-1.779297 0.217391,-0.316201 0.618543,-0.961619 0.68457,-1.362304 l -0.654297,-0.242188 c -0.222873,0.146945 -0.484053,0.418923 -0.81543,0.819336 -0.649845,0.785225 -1.434757,1.949574 -1.651367,1.787109 -0.21662,-0.16246 0.676858,-1.380785 1.083008,-2.166015 0.14428,-0.278943 0.28416,-0.549547 0.400391,-0.806641 l -1.069336,-0.396484 c -0.222469,0.303082 -0.414235,0.634129 -0.522461,0.850586 -0.27077,0.54154 -0.97506,2.112474 -1.21875,2.031249 -0.243695,-0.08123 0.162209,-1.435204 0.568359,-2.193359 0.1675,-0.312669 0.331777,-0.646076 0.453125,-0.957031 l -1.030273,-0.382812 z"/>
 <path style="fill:#6c5548" d="M 20.69686,4 C 19.39372,4 17,4 14.91868,4.93438 14.032575,5.332185 13.18116,6.47212 13.61554,6.9065 14.04992,7.340885 14.926335,6.25984 16.221815,5.80314 18.5,5 21.04587,4.599245 22,4.48613 L 22,4.198525 C 21.72629,4.09655 21.310745,4 20.69686,4 Z"/>
 <path style="opacity:0.2" d="m 17.722656,6.5000009 c -1.54064,0 -3.222656,2.1258025 -3.222656,3.6738731 0,0.870842 1.977212,1.115586 3.466797,1.306069 C 19.495117,11.675375 21,10.41587 21,8.8678049 c 0,-0.113235 -0.01147,-0.2213595 -0.0293,-0.326763 0,0 0,-10e-4 0,-10e-4 -8.5e-4,-0.00502 -0.0021,-0.00973 -0.0029,-0.01472 -3.5e-5,-1.955e-4 -9.5e-4,-8e-4 -0.001,-10e-4 -0.217164,-1.216231 -1.571203,-1.896503 -2.892578,-2.000809 -0.0013,-1.045e-4 -0.0026,-8.5e-4 -0.0039,-9.5e-4 -0.116161,-0.009 -0.232788,-0.022525 -0.347621,-0.022525 z"/>
 <path style="fill:#ffffff" d="M 17.722656,6 C 16.182016,6 14.5,8.1258025 14.5,9.6738735 14.5,10.544716 16.477212,10.78946 17.966797,10.979943 19.495117,11.175375 21,9.91587 21,8.367804 c 0,-0.113235 -0.01147,-0.2213595 -0.0293,-0.326763 0,0 0,-10e-4 0,-10e-4 -8.5e-4,-0.00502 -0.0021,-0.00973 -0.0029,-0.01472 -3.5e-5,-1.955e-4 -9.5e-4,-8e-4 -0.001,-10e-4 -0.217164,-1.216231 -1.571203,-1.896503 -2.892578,-2.000809 -0.0013,-1.045e-4 -0.0026,-8.5e-4 -0.0039,-9.5e-4 -0.116161,-0.009 -0.232788,-0.022525 -0.347621,-0.022525 z"/>
 <path style="fill:#583268" d="M 18.433594,6.071289 A 1.5166552,1.5239656 0 0 0 17.5,7.475586 1.5166552,1.5239656 0 0 0 19.016601,9 1.5166552,1.5239656 0 0 0 20.533203,7.475586 1.5166552,1.5239656 0 0 0 20.476562,7.069336 C 19.99207,6.533572 19.230376,6.197353 18.433594,6.071289 Z"/>
 <path style="fill:#54d883" d="M 4.4501953,3 C 4.5470178,4.0000569 4.8622131,5.114379 5.176758,5.6591875 5.798073,6.7353425 6.923845,6.6711275 8,6.0498125 9.07606,5.4284925 9.89432,4.43553 9.273,3.359375 9.2101515,3.250518 9.1185965,3.1259468 9.023,3 Z"/>
 <path style="opacity:0.2" d="m 12.161133,3.5 -4.8232425,18 0.1621095,0 0.4785155,0 0.3945315,0 4.823242,-18 L 13,3.5 l -0.838867,0 z"/>
 <path style="opacity:0.2" d="M 10.5,11.5 10.241211,12.465821 22,15.616211 22,15.5 22,14.581055 10.5,11.5 Z"/>
 <path style="fill:#ffffff" d="M 12.161133,3 7.3378905,21 7.5,21 7.9785155,21 8.373047,21 13.196289,3 13,3 12.161133,3 Z"/>
 <path style="fill:#ffffff" d="M 10.5,11 10.241211,11.965821 22,15.116211 22,15 22,14.081055 10.5,11 Z"/>
 <path style="opacity:0.2;fill:#ffffff" d="M 3,3 C 2.446,3 2,3.446 2,4 l 0,0.5 c 0,-0.554 0.446,-1 1,-1 l 18,0 c 0.554,0 1,0.446 1,1 L 22,4 C 22,3.446 21.554,3 21,3 Z"/>
</svg>
